X:420
T: "Der Kuckuck"
N: Z1100
O: Europa, Mitteleuropa, Deutschland, Westfalen
R: Romanze, Ballade
M: 6/8
L: 1/8
K: G
D | DGGGFG | BAAA2
A | B2BdcA | G2z3
D | G2GGFG | B2AA2
A | B2BdcA | B2z3
d | ^c2AABc | eddd2
d | ^c2AABc | eddd2
d | B2dA2d | G2z3

